Obsidian-SemiLight/actions/24s/final_activity.svg

<svg viewBox="0 0 24 24" xmlns="http://www.w3.org/2000/svg"><path d="m12 4c-4.4182746 0-7.9999953 3.5817206-8 8 .0000047 4.418279 3.5817254 8 8 8 4.418275 0 7.999995-3.581721 8-8-.000005-4.4182794-3.581725-8-8-8zm0 1c1.660191.0004288 3.266188.5909096 4.53125 1.6660156v.0019532c.01246.019396.01803.0306272.03125.0507812l-4.5625 4.5625-4.5625-4.5625c.00817-.013106.0114602-.0202251.0195312-.0332031 1.2653686-1.0847726 2.8762718-1.6824551 4.5429688-1.6855469zm-5.28125 2.4375 4.5625 4.5625-4.5625 4.5625c-.1016033-.121695-.1674783-.187049-.2617188-.296875-.9427182-1.22233-1.4549653-2.721992-1.4570312-4.265625.0008918-1.659519.5913443-3.264747 1.6660156-4.5292969.0210892-.0139303.0311042-.01876.0527344-.0332031zm10.5625 0c.0092.0038.014257.0040525.023438.0078125 1.090915 1.2670466 1.692295 2.8827145 1.695312 4.5546875-.00045 1.666377-.595348 3.277936-1.677734 4.544922-.01502.0077-.025116.008998-.041016.017578l-4.5625-4.5625zm-5.28125 5.28125 4.5625 4.5625c-.0048.01015-.006999.015311-.011719.025391-1.266298 1.089343-2.880401 1.689953-4.550781 1.693359-1.673069-.001541-3.2902547-.602269-4.5585938-1.693359-.00173-.01032-.0021462-.014991-.0039062-.025391z" fill="#4d4d4d"/></svg>

<svg xmlns="http://www.w3.org/2000/svg" viewBox="0 0 24 24">
  <defs id="defs3051">
    <style type="text/css" id="current-color-scheme">
      .ColorScheme-Text {
        color:#4d4d4d;
      }
      </style>
  </defs>
 <path style="fill:currentColor;fill-opacity:1;stroke:none" 
     d="M 12 4 C 7.5817254 4 4.0000047 7.5817206 4 12 C 4.0000047 16.418279 7.5817254 20 12 20 C 16.418275 20 19.999995 16.418279 20 12 C 19.999995 7.5817206 16.418275 4 12 4 z M 12 5 C 13.660191 5.0004288 15.266188 5.5909096 16.53125 6.6660156 L 16.53125 6.6679688 C 16.54371 6.6873648 16.54928 6.698596 16.5625 6.71875 L 12 11.28125 L 7.4375 6.71875 C 7.44567 6.705644 7.4489602 6.6985249 7.4570312 6.6855469 C 8.7223998 5.6007743 10.333303 5.0030918 12 5 z M 6.71875 7.4375 L 11.28125 12 L 6.71875 16.5625 C 6.6171467 16.440805 6.5512717 16.375451 6.4570312 16.265625 C 5.514313 15.043295 5.0020659 13.543633 5 12 C 5.0008918 10.340481 5.5913443 8.735253 6.6660156 7.4707031 C 6.6871048 7.4567728 6.6971198 7.4519431 6.71875 7.4375 z M 17.28125 7.4375 C 17.29045 7.4413 17.295507 7.4415525 17.304688 7.4453125 C 18.395603 8.7123591 18.996983 10.328027 19 12 C 18.99955 13.666377 18.404652 15.277936 17.322266 16.544922 C 17.307246 16.552622 17.29715 16.55392 17.28125 16.5625 L 12.71875 12 L 17.28125 7.4375 z M 12 12.71875 L 16.5625 17.28125 C 16.5577 17.2914 16.555501 17.296561 16.550781 17.306641 C 15.284483 18.395984 13.67038 18.996594 12 19 C 10.326931 18.998459 8.7097453 18.397731 7.4414062 17.306641 C 7.4396762 17.296321 7.43926 17.29165 7.4375 17.28125 L 12 12.71875 z "
     class="ColorScheme-Text"
     />
</svg>
